X:1
T:Title
%%score ( 1 2 ) ( 3 4 )
L:1/8
Q:1/4=103
M:4/4
K:F
V:1 treble nm="Grand Piano, Soprano"
V:2 treble 
V:3 bass nm="Choir Pad, Bass"
V:4 bass 
V:1
 [CF]2 [FA]2- [FA][CG][CF][CG] | [FA]>[GB] [Ac]6 | [Fc]2 [Fd]2- [Fd][Fc]cB | [FA]2 [EG]6 | %4
w: By~George~Coles~Stebbins,~1891 * * * * *||||
 F2 [FA]2- [FA][CG][CF][CG] | [FA]>[FB] [Fc]6 | [Fd]2 [Fc]2- [Fc]F [FA]2 | [EG]2 F6 | %8
w: ||||
 F2 [Fd]2- [Fd][Fd] [Fd]2 | [Fd]2 d2 c4 | [Fc]2 [Fc]2- [Fc][FA] [CG]2 | z2 G2 z4 | %12
w: ||||
 [EB]2 [FA]2- [FA][GB][Ac][FA] | z2 B2 z4 | [Fdf]2 [Fc]2- [Fc]F [FA]2 | [EG]2 F6- | F2 z2 z4 |] %17
w: |||||
V:2
 x8 | x8 | z4 z2 E2 | x8 | x8 | x8 | x8 | x8 | x8 | z2 F6 | x8 | [DF]2 E2- [Ec]4 | x8 | %13
 [FG]F F2- [F-c]2 [Fd]2 | x8 | x8 | x8 |] %17
V:3
 [F,A,]2 [F,C]2- [F,C][F,B,][F,A,][F,B,] | [F,C]>[F,F] [F,F]6 | [A,C]2 B,2- B,/ z/ [A,C] [G,C]2 | %3
 [F,C]2 [C,C]6 | [F,A,]2 [F,C]2- [F,C][F,B,][F,A,][F,B,] | [F,C]>[F,G,] [F,A,]6 | %6
 [B,,B,]2 [C,A,]2- [C,A,][D,A,] [C,C]2 | [C,B,]2 [F,A,]6 | z4 z2 B,2 | B,2 B,2 z4 | %10
 [F,A,]2 [F,A,]2- [F,A,][F,C] [E,C]2 | z2 C2 z4 | [C,C]2 [F,C]2- [F,C][F,C][F,F][F,C] | %13
 [F,B,][F,A,] [D,B,]2 [C,A,]2 [B,,B,]2 | [=B,,_A,]2 [C,=A,]2- [C,A,][D,A,] [C,C]2 | %15
 [C,B,]2 [F,A,]6- | [F,A,]2 z2 z4 |] %17
V:4
 x8 | x8 | x8 | x8 | x8 | x8 | x8 | x8 | [F,A,]2 [B,,B,]2- [B,,B,][B,,B,]B,,C, | %9
 D,E, F,2- [F,A,]4 | x8 | [D,A,]2 C,2- [C,G,]4 | x8 | x8 | x8 | x8 | x8 |] %17

